X: 33819
T: Real Rails
R: reel
M: 4/4
K: Dminor
D2D2z2DF|E2E2z2EG|F2F2z2GB|Aed^GAFEF|
D2D2z2DF|E2E2z2EG|F2F2z2GB|Aede-e4:|
|:Aede-efge|fedfeAGA|Aede-efge|fedefa2G|
Aede-efge|fedfeAGA|fedf-fgae|Aed^G-GAAA:|
|:f3e3A2-|A2A2G2A2|f3e3g2-|g8|
f3e3A2-|A2B2e2g2|f3e3f2-|fe3a4:|

